X: 1
T: Bouchard's Hornpipe
R: hornpipe, reel
Z: 2020 John Chambers <jc:trillian.mit.edu>
S: https://www.facebook.com/groups/Fiddletuneoftheday/ 2020-09-17
S: https://www.facebook.com/groups/Fiddletuneoftheday/photos/
M: 4/4
L: 1/8
K: D
FE |\
"D"DFAd "G"BcdB | "A"Acec "D"d2ef | g2ga gfeg | "D"fedB A2A2 ||\
"G"B3A BcdB | "D"AGFG A2 (3ABc | d2f2 "A"edc2 | "D"d6 :|
|: fg |\
"D"a2ab agfa | "Em"gfef g2ag | "D"f2df "G"gfed | "A"cdec A2A2 ||\
"G"B3A BcdB | "D"AGFG A2 (3ABc | d2f2 "A"edc2 | "D"d6 :|
